X:13562
%686
T:Anna Bolena. JMT.042
M:4/4
L:1/8
Q:1/4=135
C:Unedited!
S:J.Moore,Tyneside,1841.(30)
R:March
O:England
A:Northumbria
N:Bar lines all over the place ! Very suitable for the village band to
N:play at the garden fete for visiting pompousness's
H:184
Z:vmp.Chris Partington
K:C
ezcz|G3c/2-d/2 ezcz|G3A/2-B/2 czd2z
%Error : Bar 2 is 9/8 not 4/4
|ef2
%Error : Bar 3 is 3/8 not 4/4
|^cde2B
%Error : Bar 4 is 5/8 not 4/4
|!
c2-Gzezcz|G3c/2-d/2 ezcz|(G3A/2B/2) czez|dg^fe d^c=cA|G2z2
%Error : Bar 9 is 1/2 not 4/4
|!
|"cres."G2G2
%Error : Bar 11 is 1/2 not 4/4
|(d3^c/2)d/2(e3^d/2)e/2|f2-GzG2G2|c>GE>G c>ea>g|g2-dz"soft"G2G2|
!
d3^c/2d/2"cres"e3^d/2e/2|f2-GzG2G2|c>Bc>d e>de>c|"hold"g2z2ez"*"cz|
%Error : Guitar chord name not properly closed
G3c/2-d/2 ""

%Error : *'s in middle of line ignored

%Error : *'s in middle of line ignored

%Error : Guitar chord name not properly closed
"ez""ez|!"
e2-AzABcd ea2-g "pia"da2-g
%Error : Bar 20 is 5/2 not 4/4
|g2ezABcd|(ea2g) da2g|c2z2
%Error : Bar 23 is 1/2 not 4/4
|]
%These 3 notes are crotchets in the MS


